X:1
T:Unknown Waltz
M:3/4
R:Waltz
L:1/4
Z: Contributed 2016-10-05 12:07:08 by Jim Grant jsofgrant@gmail.com
K:G
(3d^cd (3ed^c (3AGE| D2 G | E2 G | D2 G |
FDF | cBA | B/_B/=B/ A/ B/c/ .B2z|
(3d^cd (3ed^c (3AGE| D2 G | E2 G | D2 G |
F-DF | c-BA | G3 ||
